_includes/icons/color-twitter.svg

<svg fill="#666" height="50" viewBox="0 0 48 48" width="50" xmlns="http://www.w3.org/2000/svg"><path d="m42 12.429688c-1.324219.585937-2.746094.976562-4.246094 1.160156 1.523438-.90625 2.699219-2.351563 3.25-4.058594-1.429687.839844-3.011718 1.453125-4.691406 1.777344-1.34375-1.425781-3.261719-2.308594-5.386719-2.308594-4.078125 0-7.386718 3.277344-7.386718 7.320313 0 .570312.066406 1.128906.191406 1.667968-6.136719-.304687-11.582031-3.222656-15.222656-7.652343-.640625 1.082031-1 2.347656-1 3.6875 0 2.539062 1.300781 4.777343 3.285156 6.09375-1.210938-.035157-2.351563-.375-3.347656-.914063v.085938c0 3.550781 2.546875 6.507812 5.921875 7.183593-.617188.167969-1.269532.261719-1.941407.261719-.476562 0-.941406-.054687-1.390625-.136719.9375 2.902344 3.664063 5.023438 6.898438 5.085938-2.53125 1.960937-5.714844 3.136719-9.175781 3.136719-.597657 0-1.183594-.035157-1.761719-.105469 3.273437 2.070312 7.15625 3.285156 11.324219 3.285156 13.585937 0 21.019531-11.15625 21.019531-20.835937 0-.316407-.011719-.632813-.027344-.941407 1.449219-1.027343 2.699219-2.316406 3.6875-3.792968" fill="#03a9f4"/></svg>

<svg xmlns="http://www.w3.org/2000/svg" viewBox="0 0 48 48" width="50" height="50" fill="#666"><path d="M 42 12.429688 C 40.675781 13.015625 39.253906 13.40625 37.753906 13.589844 C 39.277344 12.683594 40.453125 11.238281 41.003906 9.53125 C 39.574219 10.371094 37.992188 10.984375 36.3125 11.308594 C 34.96875 9.882813 33.050781 9 30.925781 9 C 26.847656 9 23.539063 12.277344 23.539063 16.320313 C 23.539063 16.890625 23.605469 17.449219 23.730469 17.988281 C 17.59375 17.683594 12.148438 14.765625 8.507813 10.335938 C 7.867188 11.417969 7.507813 12.683594 7.507813 14.023438 C 7.507813 16.5625 8.808594 18.800781 10.792969 20.117188 C 9.582031 20.082031 8.441406 19.742188 7.445313 19.203125 C 7.445313 19.226563 7.445313 19.257813 7.445313 19.289063 C 7.445313 22.839844 9.992188 25.796875 13.367188 26.472656 C 12.75 26.640625 12.097656 26.734375 11.425781 26.734375 C 10.949219 26.734375 10.484375 26.679688 10.035156 26.597656 C 10.972656 29.5 13.699219 31.621094 16.933594 31.683594 C 14.402344 33.644531 11.21875 34.820313 7.757813 34.820313 C 7.160156 34.820313 6.574219 34.785156 5.996094 34.714844 C 9.269531 36.785156 13.152344 38 17.320313 38 C 30.90625 38 38.339844 26.84375 38.339844 17.164063 C 38.339844 16.847656 38.328125 16.53125 38.3125 16.222656 C 39.761719 15.195313 41.011719 13.90625 42 12.429688" fill="#03a9f4"/></svg>
